icon/pk/good-two.svg

<svg viewBox="0 0 48 48" fill="none" xmlns="http://www.w3.org/2000/svg" height="1em" width="1em">
  <path d="M4.18898 22.1733C4.08737 21.0047 5.00852 20 6.18146 20H10C11.1046 20 12 20.8954 12 22V41C12 42.1046 11.1046 43 10 43H7.83363C6.79622 43 5.93102 42.2068 5.84115 41.1733L4.18898 22.1733Z" fill="#2F88FF" stroke="black" stroke-width="4" stroke-linecap="round" stroke-linejoin="round"/>
  <path d="M18 21.3745C18 20.5388 18.5194 19.7908 19.2753 19.4345C20.9238 18.6574 23.7329 17.0938 25 14.9805C26.6331 12.2569 26.9411 7.33595 26.9912 6.20878C26.9982 6.05099 26.9937 5.89301 27.0154 5.73656C27.2861 3.78446 31.0543 6.06492 32.5 8.47612C33.2846 9.78471 33.3852 11.504 33.3027 12.8463C33.2144 14.2825 32.7933 15.6699 32.3802 17.0483L31.5 19.9845H42.3569C43.6832 19.9845 44.6421 21.2518 44.2816 22.5281L38.9113 41.5436C38.668 42.4051 37.8818 43 36.9866 43H20C18.8954 43 18 42.1046 18 41V21.3745Z" fill="#2F88FF" stroke="black" stroke-width="4" stroke-linecap="round" stroke-linejoin="round"/>
</svg>

<svg width="48" height="48" fill="none" xmlns="http://www.w3.org/2000/svg"><path d="M4.189 22.173A2 2 0 0 1 6.181 20H10a2 2 0 0 1 2 2v19a2 2 0 0 1-2 2H7.834a2 2 0 0 1-1.993-1.827l-1.652-19ZM18 21.375c0-.836.52-1.584 1.275-1.94 1.649-.778 4.458-2.341 5.725-4.454 1.633-2.724 1.941-7.645 1.991-8.772.007-.158.003-.316.024-.472.271-1.953 4.04.328 5.485 2.74.785 1.308.885 3.027.803 4.37-.089 1.436-.51 2.823-.923 4.201l-.88 2.937h10.857a2 2 0 0 1 1.925 2.543l-5.37 19.016A2 2 0 0 1 36.986 43H20a2 2 0 0 1-2-2V21.375Z" fill="#2F88FF" stroke="#000" stroke-width="4" stroke-linecap="round" stroke-linejoin="round"/></svg>
